X:1
T:Amazing Grace
C:John Newton
M:3/4
L:1/8
Q:1/4=90
K:G
D2|G4B2|B4A2|G4e2|d6|B4d2|d4B2|A4G2|G4D2|G4B2|B4A2|G4e2|d6|e4d2|B4G2|A4D2|G6|
w:A- ma- zing grace how sweet the sound that saved a wretch like me I once was lost but now am found was blind but now I see
